packages/match-logos/mono/svg/yelp.svg

<svg fill="none" height="48" viewBox="0 0 107 48" width="107" xmlns="http://www.w3.org/2000/svg" xmlns:xlink="http://www.w3.org/1999/xlink"><clipPath id="a"><path d="m0 0h106.8v48h-106.8z"/></clipPath><g clip-path="url(#a)"><path clip-rule="evenodd" d="m75.9087 19.9053c.3208-.4979.7805-.7571 1.2984-.7366.3377.0037.6398.1119 7.3496 2.8627.0037 0 1.9607.7927 1.9607.7927.7093.2648 1.1389.9959 1.0939 1.8239-.045.8076-.5103 1.4398-1.2027 1.6151-.0113.0056-2.7864.8859-2.7864.8859-6.2444 1.9955-6.4508 2.0515-6.7829 2.0347-.5179-.0186-.9719-.3226-1.2421-.8337-.1971-.3692-.3321-.9884-.4147-1.7307-.2345-2.2492.0507-5.6378.7262-6.714zm15.0106 20.4963c-.1783.4849-.6005.8095-1.1802.9139-1.67.2835-6.8974-1.6281-7.9875-2.915-.2196-.2686-.3528-.5558-.381-.8467-.0225-.2033.0057-.4084.0751-.5987.1145-.3245.3115-.5781 5.0117-6.0668.0037 0 1.3735-1.6151 1.3735-1.6151.4691-.58 1.304-.7628 2.0789-.4662.7524.2872 1.2121.9306 1.1671 1.6374-.0019.028-.0169 2.9094-.0169 2.9094-.0188 6.5201-.0319 6.7345-.1407 7.0478zm10.6047-2.2697c-.546.2183-1.071.166-1.484-.1566-.2663-.207-.5497-.6304-4.2536-6.6096l-1.1013-1.7829c-.4222-.6378-.3434-1.4827.1857-2.1224.5085-.6229 1.2647-.8597 1.9271-.6042.0356.0168 2.7731.9157 2.7731.9157 6.241 2.0366 6.442 2.113 6.706 2.3107.403.3208.587.8225.503 1.4044-.242 1.6729-3.68 6.0202-5.256 6.6449zm-3.2251-15.3936c-1.1371.2685-1.7619.4215-2.1109.552.0075-.0093.0357-.0597.0357-.0597-.7092.1959-1.4824-.1436-1.9402-.8392-.4428-.6714-.4353-1.4547.0169-2.0011.0207-.0224 1.7357-2.3443 1.7357-2.3443 3.7976-5.1624 3.9979-5.4309 4.2719-5.6081.443-.2947.976-.3114 1.509-.0578 1.503.7311 4.554 5.2332 4.736 6.9639.004.0205 0 .041 0 .0597.037.5856-.178 1.0667-.608 1.354-.28.1827-.554.2722-7.6461 1.9806zm-7.1188-5.8207c.1163 2.3816-.9119 2.6987-1.2478 2.8013-.3396.1063-1.3734.4233-2.64-1.6189 0 0-8.5729-13.40741-8.7756-13.81958-.1238-.46624.0282-.99217.441-1.41926 1.2815-1.31482 8.2014-3.241357 10.0121-2.7956236.5892.1473346 1 .5203336 1.1426 1.0425336.0995.57628.9457 13.01583 1.0677 15.80953zm-87.816 29.4856c-.49723-.4551-.71673-1.05-.6323-1.727.12009-1.0518.87062-1.7326 2.06397-1.878.08819 0 1.24958.0261 1.24958.0261.55727.0224 1.03388-.1455 1.37725-.4663.349-.3263.54412-.815.55913-1.395 0-.0149-.06753-.4233-.06753-.4233 0-.0877-.20266-.6248-.20266-.6248-.01689-.0411-7.464039-15.1046-7.464039-15.1046-.600424-1.7326-.099445-3.0773 1.405369-3.6461 1.15395-.455 2.28726.0951 2.67378.8635.00375.0019 6.12615 11.4977 6.12615 11.4977l3.006-10.1474c.8031-2.7267 2.077-2.7546 3.0978-2.4767.6492.1715 1.1089.5054 1.3847.9977.3396.6117.3621 1.4361.0657 2.3854l-5.7284 17.889c-1.1502 3.6349-2.34549 4.4909-4.27248 4.8695-2.05646.4159-3.74888.1828-4.64202-.6397zm34.2449-18.3422c.2252 2.3107.2665 3.9668-.2589 4.5468-.2571.2761-.7037.3898-1.5856.3898h-9.558l-.1107.0746c-.4127.2686-.3546.9288-.227 1.5946-.0113-.0821.1764.6565.1764.6565.4203 1.1171 1.3491 1.9321 2.5387 2.2324 1.5611.3935 3.3229-.1362 4.8428-1.4529 1.0545-.9381 1.5311-1.05 2.0959-.9381.9869.1325 1.6586 1.0015 1.6586 2.1056 0 1.5013-1.957 3.8755-6.3082 4.4835-3.0509.4103-5.5596-.2518-7.2558-1.9172-2.2497-2.2026-3.1053-6.0967-2.4823-11.2646.5066-4.3231 2.7168-6.9378 6.3982-7.5719 2.9364-.5222 5.4169-.1007 7.1694 1.2216 1.6456 1.2365 2.6494 3.2544 2.9065 5.8393zm-4.901 1.3801c.1088 0 .2083-.207.0563-1.2608-.3171-2.4151-2.2722-3.8307-5.0754-3.1499-.8988.2088-1.6888.6788-2.2723 1.4118-.1032.1603-.2101.3207-.3133.4774-.319.5222-.4278.8952-.5291 1.3111-.1614.7907-.0564 1.0537.1594 1.2104zm13.5659-15.0505c.5929.2405 1.0301.6956 1.1633 1.2215 0 .0205.1445 1.1172.1445 1.1172v22.6951c0 1.0239-.4897 1.8501-1.321 2.2081-.6679.3115-1.4147.3171-2.062.0187-.5836-.263-1.0039-.7441-1.1652-1.3092-.0132-.0355-.1389-.8449-.1389-.8449v-22.6522c0-1.1656.3003-1.8109 1.0208-2.2343.7486-.4438 1.6024-.5259 2.3585-.22zm18.2698 6.3764c4.8541.9381 6.6741 4.6942 6.0662 12.5551-.2908 3.9333-1.548 6.2757-4.0923 7.5961-2.0208 1.0351-4.5313 1.1377-6.4076.2574 0 0-.2214-.1082-.2252-.1082 0 0-.2421-.1398-.244-.1417l-.2101-.138c-.075-.0783-.2514-.194-.2514-.194l-.6999-.4625-.2307.733-.0244.0876-.017.1828.0414.6192v3.8474l-.1408.9531c-.1595.5445-.5873.9921-1.169 1.2458-.6848.2928-1.4823.2648-2.1915-.0895-.8406-.3991-1.2252-1.1563-1.2252-2.3742v-22.2326c0-1.4192.3433-1.8948.9419-2.2324 1.2234-.6938 2.5799-.3394 3.079.4327.0169.0242.1332.179.1332.179l.0131.0355.0395.1193.1144.1921.1352.5315.4766-.2126.1557-.0783c.075-.0447.2702-.2014.2702-.2014 1.7393-1.1712 3.5481-1.5312 5.6627-1.1022zm-.2345 16.632c3.0415 0 3.6888-2.4562 3.7207-6.1508.0451-3.1555-.4465-5.0466-1.563-5.94-.743-.5949-1.7337-.7404-3.0302-.442-1.9308.3991-2.6869 1.8333-2.8915 5.4701 0 .0354-.0356.9455-.0356.9455s.0356 1.2253.0413 1.2309c.0994 2.1019.6023 4.8863 3.7583 4.8863zm11.6463 1.809c0 .7516-.606 1.313-1.3265 1.313-.7224 0-1.3266-.5614-1.3266-1.2999 0-.7516.6042-1.3148 1.3266-1.3148.7205 0 1.3265.5632 1.3265 1.3017zm-1.3265 1.1228c.6173 0 1.1145-.4831 1.1145-1.1228 0-.6285-.4972-1.1134-1.1145-1.1134-.6192 0-1.1165.4849-1.1165 1.1265 0 .6266.4973 1.1097 1.1165 1.1097zm-.4935-1.865h.5592c.3659 0 .5366.1324.5366.4345 0 .2723-.1745.3861-.4034.4103l.4409.6696h-.2308l-.4165-.6509h-.2721v.6509h-.2139zm.2139.6732h.2608c.2121 0 .4109-.0111.4109-.248 0-.2126-.1819-.235-.3452-.235h-.3265z" fill="#1f304c" fill-rule="evenodd"/></g></svg>

<svg width="107" height="48" viewBox="0 0 107 48" fill="none" xmlns="http://www.w3.org/2000/svg">
<g clip-path="url(#clip0)">
<path fill-rule="evenodd" clip-rule="evenodd" d="M75.9087 19.9053C76.2295 19.4074 76.6892 19.1482 77.2071 19.1687C77.5448 19.1724 77.8469 19.2806 84.5567 22.0314C84.5604 22.0314 86.5174 22.8241 86.5174 22.8241C87.2267 23.0889 87.6563 23.82 87.6113 24.648C87.5663 25.4556 87.101 26.0878 86.4086 26.2631C86.3973 26.2687 83.6222 27.149 83.6222 27.149C77.3778 29.1445 77.1714 29.2005 76.8393 29.1837C76.3214 29.1651 75.8674 28.8611 75.5972 28.35C75.4001 27.9808 75.2651 27.3616 75.1825 26.6193C74.948 24.3701 75.2332 20.9815 75.9087 19.9053ZM90.9193 40.4016C90.741 40.8865 90.3188 41.2111 89.7391 41.3155C88.0691 41.599 82.8417 39.6874 81.7516 38.4005C81.532 38.1319 81.3988 37.8447 81.3706 37.5538C81.3481 37.3505 81.3763 37.1454 81.4457 36.9551C81.5602 36.6306 81.7572 36.377 86.4574 30.8883C86.4611 30.8883 87.8309 29.2732 87.8309 29.2732C88.3 28.6932 89.1349 28.5104 89.9098 28.807C90.6622 29.0942 91.1219 29.7376 91.0769 30.4444C91.075 30.4724 91.06 33.3538 91.06 33.3538C91.0412 39.8739 91.0281 40.0883 90.9193 40.4016ZM101.524 38.1319C100.978 38.3502 100.453 38.2979 100.04 37.9753C99.7737 37.7683 99.4903 37.3449 95.7864 31.3657L94.6851 29.5828C94.2629 28.945 94.3417 28.1001 94.8708 27.4604C95.3793 26.8375 96.1355 26.6007 96.7979 26.8562C96.8335 26.873 99.571 27.7719 99.571 27.7719C105.812 29.8085 106.013 29.8849 106.277 30.0826C106.68 30.4034 106.864 30.9051 106.78 31.487C106.538 33.1599 103.1 37.5072 101.524 38.1319ZM98.2989 22.7383C97.1618 23.0068 96.537 23.1598 96.188 23.2903C96.1955 23.281 96.2237 23.2306 96.2237 23.2306C95.5145 23.4265 94.7413 23.087 94.2835 22.3914C93.8407 21.72 93.8482 20.9367 94.3004 20.3903C94.3211 20.3679 96.0361 18.046 96.0361 18.046C99.8337 12.8836 100.034 12.6151 100.308 12.4379C100.751 12.1432 101.284 12.1265 101.817 12.3801C103.32 13.1112 106.371 17.6133 106.553 19.344C106.557 19.3645 106.553 19.385 106.553 19.4037C106.59 19.9893 106.375 20.4704 105.945 20.7577C105.665 20.9404 105.391 21.0299 98.2989 22.7383ZM91.1801 16.9176C91.2964 19.2992 90.2682 19.6163 89.9323 19.7189C89.5927 19.8252 88.5589 20.1422 87.2923 18.1C87.2923 18.1 78.7194 4.69259 78.5167 4.28042C78.3929 3.81418 78.5449 3.28825 78.9577 2.86116C80.2392 1.54634 87.1591 -0.380197 88.9698 0.0655364C89.559 0.212871 89.9698 0.58587 90.1124 1.10807C90.2119 1.68435 91.0581 14.1239 91.1801 16.9176ZM3.3641 46.4032C2.86687 45.9481 2.64737 45.3532 2.7318 44.6762C2.85189 43.6244 3.60242 42.9436 4.79577 42.7982C4.88396 42.7982 6.04535 42.8243 6.04535 42.8243C6.60262 42.8467 7.07923 42.6788 7.4226 42.358C7.7716 42.0317 7.96672 41.543 7.98173 40.963C7.98173 40.9481 7.9142 40.5397 7.9142 40.5397C7.9142 40.452 7.71154 39.9149 7.71154 39.9149C7.69465 39.8738 0.247501 24.8103 0.247501 24.8103C-0.352923 23.0777 0.148056 21.733 1.65287 21.1642C2.80682 20.7092 3.94013 21.2593 4.32665 22.0277C4.3304 22.0296 10.4528 33.5254 10.4528 33.5254L13.4588 23.378C14.2619 20.6513 15.5358 20.6234 16.5566 20.9013C17.2058 21.0728 17.6655 21.4067 17.9413 21.899C18.2809 22.5107 18.3034 23.3351 18.007 24.2844L12.2786 42.1734C11.1284 45.8083 9.93311 46.6643 8.00612 47.0429C5.94966 47.4588 4.25724 47.2257 3.3641 46.4032ZM37.609 28.061C37.8342 30.3717 37.8755 32.0278 37.3501 32.6078C37.093 32.8839 36.6464 32.9976 35.7645 32.9976H26.2065L26.0958 33.0722C25.6831 33.3408 25.7412 34.001 25.8688 34.6668C25.8575 34.5847 26.0452 35.3233 26.0452 35.3233C26.4655 36.4404 27.3943 37.2554 28.5839 37.5557C30.145 37.9492 31.9068 37.4195 33.4267 36.1028C34.4812 35.1647 34.9578 35.0528 35.5226 35.1647C36.5095 35.2972 37.1812 36.1662 37.1812 37.2703C37.1812 38.7716 35.2242 41.1458 30.873 41.7538C27.8221 42.1641 25.3134 41.502 23.6172 39.8366C21.3675 37.634 20.5119 33.7399 21.1349 28.572C21.6415 24.2489 23.8517 21.6342 27.5331 21.0001C30.4695 20.4779 32.95 20.8994 34.7025 22.2217C36.3481 23.4582 37.3519 25.4761 37.609 28.061ZM32.708 29.4411C32.8168 29.4411 32.9163 29.2341 32.7643 28.1803C32.4472 25.7652 30.4921 24.3496 27.6889 25.0304C26.7901 25.2392 26.0001 25.7092 25.4166 26.4422C25.3134 26.6025 25.2065 26.7629 25.1033 26.9196C24.7843 27.4418 24.6755 27.8148 24.5742 28.2307C24.4128 29.0214 24.5178 29.2844 24.7336 29.4411H32.708ZM46.2739 14.3906C46.8668 14.6311 47.304 15.0862 47.4372 15.6121C47.4372 15.6326 47.5817 16.7293 47.5817 16.7293V39.4244C47.5817 40.4483 47.092 41.2745 46.2607 41.6325C45.5928 41.944 44.846 41.9496 44.1987 41.6512C43.6151 41.3882 43.1948 40.9071 43.0335 40.342C43.0203 40.3065 42.8946 39.4971 42.8946 39.4971V16.8449C42.8946 15.6793 43.1949 15.034 43.9154 14.6106C44.664 14.1668 45.5178 14.0847 46.2739 14.3906ZM64.5437 20.767C69.3978 21.7051 71.2178 25.4612 70.6099 33.3221C70.3191 37.2554 69.0619 39.5978 66.5176 40.9182C64.4968 41.9533 61.9863 42.0559 60.11 41.1756C60.11 41.1756 59.8886 41.0674 59.8848 41.0674C59.8848 41.0674 59.6427 40.9276 59.6408 40.9257L59.4307 40.7877C59.3557 40.7094 59.1793 40.5937 59.1793 40.5937L58.4794 40.1312L58.2487 40.8642L58.2243 40.9518L58.2073 41.1346L58.2487 41.7538V45.6012L58.1079 46.5543C57.9484 47.0988 57.5206 47.5464 56.9389 47.8001C56.2541 48.0929 55.4566 48.0649 54.7474 47.7106C53.9068 47.3115 53.5222 46.5543 53.5222 45.3364V23.1038C53.5222 21.6846 53.8655 21.209 54.4641 20.8714C55.6875 20.1776 57.044 20.532 57.5431 21.3041C57.56 21.3283 57.6763 21.4831 57.6763 21.4831L57.6894 21.5186L57.7289 21.6379L57.8433 21.83L57.9785 22.3615L58.4551 22.1489L58.6108 22.0706C58.6858 22.0259 58.881 21.8692 58.881 21.8692C60.6203 20.698 62.4291 20.338 64.5437 20.767ZM64.3092 37.399C67.3507 37.399 67.998 34.9428 68.0299 31.2482C68.075 28.0927 67.5834 26.2016 66.4669 25.3082C65.7239 24.7133 64.7332 24.5678 63.4367 24.8662C61.5059 25.2653 60.7498 26.6995 60.5452 30.3363C60.5452 30.3717 60.5096 31.2818 60.5096 31.2818C60.5096 31.2818 60.5452 32.5071 60.5509 32.5127C60.6503 34.6146 61.1532 37.399 64.3092 37.399ZM75.9555 39.208C75.9555 39.9596 75.3495 40.521 74.629 40.521C73.9066 40.521 73.3024 39.9596 73.3024 39.2211C73.3024 38.4695 73.9066 37.9063 74.629 37.9063C75.3495 37.9063 75.9555 38.4695 75.9555 39.208ZM74.629 40.3308C75.2463 40.3308 75.7435 39.8477 75.7435 39.208C75.7435 38.5795 75.2463 38.0946 74.629 38.0946C74.0098 38.0946 73.5125 38.5795 73.5125 39.2211C73.5125 39.8477 74.0098 40.3308 74.629 40.3308ZM74.1355 38.4658H74.6947C75.0606 38.4658 75.2313 38.5982 75.2313 38.9003C75.2313 39.1726 75.0568 39.2864 74.8279 39.3106L75.2688 39.9802H75.038L74.6215 39.3293H74.3494V39.9802H74.1355V38.4658ZM74.3494 39.139H74.6102C74.8223 39.139 75.0211 39.1279 75.0211 38.891C75.0211 38.6784 74.8392 38.656 74.6759 38.656H74.3494V39.139Z" fill="#1F304C"/>
</g>
<defs>
<clipPath id="clip0">
<rect width="106.8" height="48" fill="white"/>
</clipPath>
</defs>
</svg>
